X:44
T: Cameron's Got His Wife Again
R: strathspey
M: 4/4
L: 1/8
K: Dmaj
A|{c}d>B A>F A/A/A AB/c/|d>B A>F E4|{c}d>B A>F A>g f>e|1d>B A<F D3:|2 d>B A<F D4 |
|:f>d f<a e>g f>e|f>d f<a B2- B>g| f>d f<a e>g f>e|1 d>B A<F D3g:|2 d>B A<F D4|]

